public/static/icons/editor/monospace.svg

<svg height="24" viewBox="0 0 24 24" width="24" xmlns="http://www.w3.org/2000/svg"><path d="m7.8824164 22.5016181c.28478964 0 .52211434-.0791082.71197411-.2373247.18985976-.1582164.28478964-.3876303.28478964-.6882416s-.09492988-.5300252-.28478964-.6882417c-.18985977-.1582164-.42718447-.2373247-.71197411-.2373247h-.92556635c-.34807623 0-.60517799-.0830636-.77130528-.2491909s-.24919094-.4311399-.24919094-.7950378v-5.0312837c0-.6961524-.17799353-1.2736425-.53398058-1.7324703-.35598706-.4588278-.77921611-.7436174-1.26968717-.8543689.49047106-.1107516.91370011-.3915858 1.26968717-.8425027.35598705-.450917.53398058-1.0244517.53398058-1.72060413v-5.03128371c0-.36389788.08306365-.62891047.24919094-.79503776s.42322905-.24919094.77130528-.24919094h.92556635c.28478964 0 .52211434-.07910823.71197411-.2373247.18985976-.15821647.28478964-.38763035.28478964-.68824164s-.09492988-.53002517-.28478964-.68824164c-.18985977-.15821647-.42718447-.2373247-.71197411-.2373247h-1.70873787c-.82272564 0-1.45954692.22941388-1.91046386.68824164s-.6763754 1.10751528-.6763754 1.94606256v5.03128372c0 .63286587-.11866236 1.095649-.35598706 1.3883495s-.65659834.4548724-1.25782093.4865157c-.31643293.0158216-.55771305.1107515-.72384034.2847896s-.24919094.3955412-.24919094.6645092c0 .2847896.08306365.5142035.24919094.6882416s.40740741.268968.72384034.2847896c.60122259.0316433 1.02049623.1938152 1.25782093.4865157s.35598706.7554836.35598706 1.3883495v5.0312837c0 .8385473.22545846 1.4872348.6763754 1.9460626.45091694.4588277 1.08773822.6882416 1.91046386.6882416zm9.9439051 0c.8385473 0 1.4832794-.2294139 1.9341963-.6882416.4509169-.4588278.6763754-1.1075153.6763754-1.9460626l.0237325-5.0312837c0-.6486875.1147069-1.1154261.3441208-1.4002157.2294139-.2847897.6368213-.4430062 1.2222222-.4746495.316433-.0158216.5577131-.1107515.7238404-.2847896s.2491909-.403452.2491909-.6882416c0-.268968-.0830636-.4904711-.2491909-.6645092s-.4074074-.268968-.7238404-.2847896c-.6012226-.0316433-1.0165408-.1898598-1.2459547-.4746495-.2294139-.2847896-.3441208-.75152818-.3441208-1.4002157v-5.03128372c0-.83854728-.2254585-1.4872348-.6763754-1.94606256s-1.095649-.68824164-1.9341963-.68824164h-1.7087379c-.2847896 0-.5181589.07910823-.7001079.2373247-.1819489.15821647-.2729234.38763035-.2729234.68824164s.0949299.53002517.2847897.68824164c.1898597.15821647.4192736.2373247.6882416.2373247h.9492988c.6803308 0 1.0204962.34807623 1.0204962 1.0442287v5.03128371c0 .69615243.1779936 1.26968713.5339806 1.72060413.3559871.4509169.7792161.7317511 1.2696872.8425027-.4904711.1107515-.9137001.3955411-1.2696872.8543689-.355987.4588278-.5339806 1.0363179-.5339806 1.7324703v5.0312837c0 .6961525-.3401654 1.0442287-1.0204962 1.0442287h-.9492988c-.268968 0-.4983819.0791083-.6882416.2373247-.1898598.1582165-.2847897.3876304-.2847897.6882417s.0909745.5300252.2729234.6882416c.181949.1582165.4153183.2373247.7001079.2373247z" fill-rule="evenodd"/></svg>

<svg xmlns="http://www.w3.org/2000/svg" width="24" height="24" viewBox="0 0 24 24">
  <path fill-rule="evenodd" d="M7.8824164,22.5016181 C8.16720604,22.5016181 8.40453074,22.4225099 8.59439051,22.2642934 C8.78425027,22.106077 8.87918015,21.8766631 8.87918015,21.5760518 C8.87918015,21.2754405 8.78425027,21.0460266 8.59439051,20.8878101 C8.40453074,20.7295937 8.16720604,20.6504854 7.8824164,20.6504854 L7.8824164,20.6504854 L6.95685005,20.6504854 C6.60877382,20.6504854 6.35167206,20.5674218 6.18554477,20.4012945 C6.01941748,20.2351672 5.93635383,19.9701546 5.93635383,19.6062567 L5.93635383,19.6062567 L5.93635383,14.574973 C5.93635383,13.8788206 5.7583603,13.3013305 5.40237325,12.8425027 C5.04638619,12.3836749 4.62315714,12.0988853 4.13268608,11.9881338 C4.62315714,11.8773822 5.04638619,11.596548 5.40237325,11.1456311 C5.7583603,10.6947141 5.93635383,10.1211794 5.93635383,9.42502697 L5.93635383,9.42502697 L5.93635383,4.39374326 C5.93635383,4.02984538 6.01941748,3.76483279 6.18554477,3.5987055 C6.35167206,3.43257821 6.60877382,3.34951456 6.95685005,3.34951456 L6.95685005,3.34951456 L7.8824164,3.34951456 C8.16720604,3.34951456 8.40453074,3.27040633 8.59439051,3.11218986 C8.78425027,2.95397339 8.87918015,2.72455951 8.87918015,2.42394822 C8.87918015,2.12333693 8.78425027,1.89392305 8.59439051,1.73570658 C8.40453074,1.57749011 8.16720604,1.49838188 7.8824164,1.49838188 L7.8824164,1.49838188 L6.17367853,1.49838188 C5.35095289,1.49838188 4.71413161,1.72779576 4.26321467,2.18662352 C3.81229773,2.64545128 3.58683927,3.2941388 3.58683927,4.13268608 L3.58683927,4.13268608 L3.58683927,9.1639698 C3.58683927,9.79683567 3.46817691,10.2596188 3.23085221,10.5523193 C2.99352751,10.8450198 2.57425387,11.0071917 1.97303128,11.038835 C1.65659835,11.0546566 1.41531823,11.1495865 1.24919094,11.3236246 C1.08306365,11.4976627 1,11.7191658 1,11.9881338 C1,12.2729234 1.08306365,12.5023373 1.24919094,12.6763754 C1.41531823,12.8504135 1.65659835,12.9453434 1.97303128,12.961165 C2.57425387,12.9928083 2.99352751,13.1549802 3.23085221,13.4476807 C3.46817691,13.7403812 3.58683927,14.2031643 3.58683927,14.8360302 L3.58683927,14.8360302 L3.58683927,19.8673139 C3.58683927,20.7058612 3.81229773,21.3545487 4.26321467,21.8133765 C4.71413161,22.2722042 5.35095289,22.5016181 6.17367853,22.5016181 L6.17367853,22.5016181 L7.8824164,22.5016181 Z M17.8263215,22.5016181 C18.6648688,22.5016181 19.3096009,22.2722042 19.7605178,21.8133765 C20.2114347,21.3545487 20.4368932,20.7058612 20.4368932,19.8673139 L20.4368932,19.8673139 L20.4606257,14.8360302 C20.4606257,14.1873427 20.5753326,13.7206041 20.8047465,13.4358145 C21.0341604,13.1510248 21.4415678,12.9928083 22.0269687,12.961165 C22.3434017,12.9453434 22.5846818,12.8504135 22.7508091,12.6763754 C22.9169364,12.5023373 23,12.2729234 23,11.9881338 C23,11.7191658 22.9169364,11.4976627 22.7508091,11.3236246 C22.5846818,11.1495865 22.3434017,11.0546566 22.0269687,11.038835 C21.4257461,11.0071917 21.0104279,10.8489752 20.781014,10.5641855 C20.5516001,10.2793959 20.4368932,9.81265732 20.4368932,9.1639698 L20.4368932,9.1639698 L20.4368932,4.13268608 C20.4368932,3.2941388 20.2114347,2.64545128 19.7605178,2.18662352 C19.3096009,1.72779576 18.6648688,1.49838188 17.8263215,1.49838188 L17.8263215,1.49838188 L16.1175836,1.49838188 C15.832794,1.49838188 15.5994247,1.57749011 15.4174757,1.73570658 C15.2355268,1.89392305 15.1445523,2.12333693 15.1445523,2.42394822 C15.1445523,2.72455951 15.2394822,2.95397339 15.429342,3.11218986 C15.6192017,3.27040633 15.8486156,3.34951456 16.1175836,3.34951456 L16.1175836,3.34951456 L17.0668824,3.34951456 C17.7472132,3.34951456 18.0873786,3.69759079 18.0873786,4.39374326 L18.0873786,4.39374326 L18.0873786,9.42502697 C18.0873786,10.1211794 18.2653722,10.6947141 18.6213592,11.1456311 C18.9773463,11.596548 19.4005753,11.8773822 19.8910464,11.9881338 C19.4005753,12.0988853 18.9773463,12.3836749 18.6213592,12.8425027 C18.2653722,13.3013305 18.0873786,13.8788206 18.0873786,14.574973 L18.0873786,14.574973 L18.0873786,19.6062567 C18.0873786,20.3024092 17.7472132,20.6504854 17.0668824,20.6504854 L17.0668824,20.6504854 L16.1175836,20.6504854 C15.8486156,20.6504854 15.6192017,20.7295937 15.429342,20.8878101 C15.2394822,21.0460266 15.1445523,21.2754405 15.1445523,21.5760518 C15.1445523,21.8766631 15.2355268,22.106077 15.4174757,22.2642934 C15.5994247,22.4225099 15.832794,22.5016181 16.1175836,22.5016181 L16.1175836,22.5016181 L17.8263215,22.5016181 Z"/>
</svg>
